assets/svg/icon_article_listnumbers.svg

<svg width="25" height="24" viewBox="0 0 25 24" fill="none" xmlns="http://www.w3.org/2000/svg">
<path d="M5.395 7.99969H4.64V5.93469C4.64 5.87802 4.64 5.80802 4.64 5.72469C4.64333 5.64135 4.64667 5.55469 4.65 5.46469C4.65333 5.37469 4.65667 5.29469 4.66 5.22469C4.64333 5.24469 4.60667 5.28135 4.55 5.33469C4.49667 5.38469 4.44667 5.42969 4.4 5.46969L3.99 5.79969L3.625 5.34469L4.775 4.42969H5.395V7.99969Z" fill="#0166FF"/>
<path d="M6.13 13.9999H3.635V13.4749L4.53 12.5699C4.71 12.3832 4.855 12.2282 4.965 12.1049C5.075 11.9782 5.155 11.8649 5.205 11.7649C5.255 11.6615 5.28 11.5515 5.28 11.4349C5.28 11.2915 5.24 11.1849 5.16 11.1149C5.08333 11.0449 4.97833 11.0099 4.845 11.0099C4.70833 11.0099 4.575 11.0415 4.445 11.1049C4.315 11.1682 4.17833 11.2582 4.035 11.3749L3.625 10.8899C3.72833 10.7999 3.83667 10.7165 3.95 10.6399C4.06667 10.5632 4.2 10.5015 4.35 10.4549C4.50333 10.4049 4.68667 10.3799 4.9 10.3799C5.13333 10.3799 5.33333 10.4232 5.5 10.5099C5.67 10.5932 5.8 10.7082 5.89 10.8549C5.98333 10.9982 6.03 11.1615 6.03 11.3449C6.03 11.4949 6.00667 11.6332 5.96 11.7599C5.91667 11.8865 5.85167 12.0099 5.765 12.1299C5.68167 12.2465 5.57833 12.3682 5.455 12.4949C5.33167 12.6182 5.19167 12.7532 5.035 12.8999L4.575 13.3299V13.3649H6.13V13.9999Z" fill="#0166FF"/>
<path d="M5.99 17.2299C5.99 17.3932 5.955 17.5349 5.885 17.6549C5.81833 17.7749 5.72667 17.8732 5.61 17.9499C5.49667 18.0265 5.36667 18.0832 5.22 18.1199V18.1349C5.50667 18.1682 5.72333 18.2549 5.87 18.3949C6.02 18.5349 6.095 18.7232 6.095 18.9599C6.095 19.1665 6.04333 19.3532 5.94 19.5199C5.84 19.6832 5.68333 19.8132 5.47 19.9099C5.26 20.0032 4.98833 20.0499 4.655 20.0499C4.45833 20.0499 4.275 20.0332 4.105 19.9999C3.935 19.9665 3.775 19.9182 3.625 19.8549V19.2149C3.77833 19.2915 3.93833 19.3499 4.105 19.3899C4.275 19.4299 4.43167 19.4499 4.575 19.4499C4.845 19.4499 5.03333 19.4032 5.14 19.3099C5.25 19.2165 5.305 19.0849 5.305 18.9149C5.305 18.8149 5.28 18.7315 5.23 18.6649C5.18 18.5949 5.09167 18.5432 4.965 18.5099C4.84167 18.4732 4.66833 18.4549 4.445 18.4549H4.175V17.8749H4.45C4.67 17.8749 4.83667 17.8549 4.95 17.8149C5.06667 17.7716 5.145 17.7149 5.185 17.6449C5.22833 17.5715 5.25 17.4882 5.25 17.3949C5.25 17.2682 5.21 17.1699 5.13 17.0999C5.05333 17.0265 4.92333 16.9899 4.74 16.9899C4.62667 16.9899 4.52333 17.0049 4.43 17.0349C4.33667 17.0615 4.25167 17.0949 4.175 17.1349C4.10167 17.1749 4.03667 17.2132 3.98 17.2499L3.63 16.7299C3.72333 16.6632 3.82667 16.6032 3.94 16.5499C4.05667 16.4965 4.185 16.4549 4.325 16.4249C4.465 16.3949 4.62167 16.3799 4.795 16.3799C5.16167 16.3799 5.45167 16.4549 5.665 16.6049C5.88167 16.7515 5.99 16.9599 5.99 17.2299Z" fill="#0166FF"/>
<path d="M21.625 18L11.625 18" stroke="#0166FF" stroke-width="1.2" stroke-linecap="round"/>
<path d="M21.625 12L11.625 12" stroke="#0166FF" stroke-width="1.2" stroke-linecap="round"/>
<path d="M21.625 6L11.625 6" stroke="#0166FF" stroke-width="1.2" stroke-linecap="round"/>
</svg>

<svg xmlns="http://www.w3.org/2000/svg" width="25" height="24" fill="none"><path fill="#0166FF" d="M5.395 8H4.64V5.725l.02-.5q-.025.03-.11.11-.08.075-.15.135l-.41.33-.365-.455 1.15-.915h.62zM6.13 14H3.635v-.525l.895-.905a17 17 0 0 0 .435-.465q.165-.19.24-.34a.75.75 0 0 0 .075-.33q0-.215-.12-.32a.45.45 0 0 0-.315-.105.9.9 0 0 0-.4.095q-.195.095-.41.27l-.41-.485q.155-.136.325-.25.175-.116.4-.185.23-.075.55-.075.35 0 .6.13a.92.92 0 0 1 .53.835q0 .225-.07.415-.065.19-.195.37a3 3 0 0 1-.31.365 18 18 0 0 1-.42.405l-.46.43v.035H6.13zM5.99 17.23a.83.83 0 0 1-.38.72 1.2 1.2 0 0 1-.39.17v.015q.43.05.65.26.225.21.225.565 0 .31-.155.56-.15.244-.47.39-.315.14-.815.14-.295 0-.55-.05a2.4 2.4 0 0 1-.48-.145v-.64a2.24 2.24 0 0 0 .95.235q.405 0 .565-.14a.49.49 0 0 0 .165-.395q0-.15-.075-.25-.075-.105-.265-.155a2 2 0 0 0-.52-.055h-.27v-.58h.275q.33 0 .5-.06.175-.065.235-.17a.5.5 0 0 0 .065-.25.37.37 0 0 0-.12-.295q-.115-.11-.39-.11a1 1 0 0 0-.31.045 1.4 1.4 0 0 0-.255.1q-.11.06-.195.115l-.35-.52q.14-.1.31-.18.175-.08.385-.125t.47-.045q.55 0 .87.225a.71.71 0 0 1 .325.625"/><path stroke="#0166FF" stroke-linecap="round" stroke-width="1.2" d="M21.625 18h-10M21.625 12h-10M21.625 6h-10"/></svg>
